src/icons/svg/linkedin.svg

<!--category:social-->
<!--character:E114-->
<svg width="24" height="24" viewBox="0 0 24 24" version="1.1" xmlns="http://www.w3.org/2000/svg"><path d="M7.74611395,9.18458282 L7.74611395,19.7520275 L4.20908836,19.7520275 L4.20908836,9.18458282 L7.74611395,9.18458282 Z M5.97758541,4 C7.21101779,4 7.97872474,4.81146117 7.97872474,5.82555311 C7.95573762,6.86247228 7.21101779,7.65141893 6.00098189,7.65141893 C4.79107195,7.65141893 4,6.86247228 4,5.82555311 C4,4.81146117 4.76754951,4 5.95453531,4 L5.97752243,4 L5.97758541,4 Z M9.70326285,20 L9.70335732,20 C9.70335732,20 9.74977242,10.4241328 9.70335732,9.43255535 L13.2403514,9.43255535 L13.2403514,10.9651069 L13.2167345,10.9651069 C13.682145,10.2437038 14.519821,9.18458282 16.4279412,9.18458282 C18.7550254,9.18458282 20.5,10.6949325 20.5,13.9407772 L20.5,20 L16.9632893,20 L16.9632893,14.3466641 C16.9632893,12.9260599 16.4513062,11.956997 15.1714273,11.956997 C14.1943171,11.956997 13.6123335,12.6105438 13.3566411,13.241576 C13.2632441,13.4673467 13.240257,13.7828628 13.240257,14.0986916 L13.240257,20 L9.70326285,20 Z" id="path-1"></path></svg>

<!--category:social-->
<!--character:E114-->
<svg width="24" height="24" viewBox="0 0 24 24" xmlns="http://www.w3.org/2000/svg"><path d="M7.7461 9.1846V19.752h-3.537V9.1846h3.537zM5.9776 4c1.2334 0 2.0011.8115 2.0011 1.8256-.023 1.0369-.7677 1.8258-1.9777 1.8258S4 6.8624 4 5.8256C4 4.8115 4.7675 4 5.9545 4h.023zm3.7257 16s.0465-9.5759 0-10.5674h3.537v1.5325h-.0236c.4654-.7214 1.3031-1.7805 3.2112-1.7805 2.3271 0 4.0721 1.5103 4.0721 4.7562V20h-3.5367v-5.6533c0-1.4206-.512-2.3897-1.7919-2.3897-.977 0-1.559.6535-1.8148 1.2846-.0934.2257-.1163.5413-.1163.857V20h-3.537z"/></svg>
